packages/tokens/icons/recommender2/size32Px.svg

<svg viewBox="0 0 32 32" fill="none" xmlns="http://www.w3.org/2000/svg" width="1em" height="1em"><path d="M11 21L15.2929 16.7071C15.6834 16.3166 16.3166 16.3166 16.7071 16.7071L21 21" stroke="currentColor" stroke-linecap="round"/><path d="M11 15L15.2929 10.7071C15.6834 10.3166 16.3166 10.3166 16.7071 10.7071L21 15" stroke="currentColor" stroke-linecap="round"/><path d="M2.76777 16.9098C2.18198 16.324 2.18198 15.3742 2.76777 14.7885L14.7886 2.76765C15.3744 2.18186 16.3241 2.18186 16.9099 2.76765L28.9307 14.7885C29.5165 15.3742 29.5165 16.324 28.9307 16.9098L16.9099 28.9306C16.3241 29.5164 15.3744 29.5164 14.7886 28.9306L2.76777 16.9098Z" stroke="currentColor"/></svg>

<svg xmlns="http://www.w3.org/2000/svg" fill="none" viewBox="0 0 32 32" width="1em" height="1em"><path stroke="currentColor" stroke-linecap="round" d="m11 21 4.293-4.293a1 1 0 0 1 1.414 0L21 21m-10-6 4.293-4.293a1 1 0 0 1 1.414 0L21 15"/><path stroke="currentColor" d="M2.768 16.91a1.5 1.5 0 0 1 0-2.121l12.02-12.021a1.5 1.5 0 0 1 2.122 0l12.02 12.02a1.5 1.5 0 0 1 0 2.122L16.91 28.93a1.5 1.5 0 0 1-2.121 0L2.768 16.91Z"/></svg>
